src/pos-icons/google-nearby.svg

<svg height="24" viewBox="0 0 24 24" width="24" xmlns="http://www.w3.org/2000/svg"><path d="m21.36 10.46-7.82-7.82c-.85-.85-2.23-.85-3.08 0l-7.82 7.82c-.85.85-.85 2.23 0 3.08l7.82 7.82c.85.85 2.23.85 3.08 0l7.82-7.82c.85-.85.85-2.23 0-3.08m-9.36 8.54-7-7 7-7 7 7zm4.5-7-4.5 4.5-4.5-4.5 4.5-4.5z"/></svg>

<?xml version="1.0" encoding="UTF-8"?><!DOCTYPE svg PUBLIC "-//W3C//DTD SVG 1.1//EN" "http://www.w3.org/Graphics/SVG/1.1/DTD/svg11.dtd"><svg xmlns="http://www.w3.org/2000/svg" xmlns:xlink="http://www.w3.org/1999/xlink" version="1.1" id="mdi-google-nearby" width="24" height="24" viewBox="0 0 24 24"><path d="M21.36,10.46L13.54,2.64C12.69,1.79 11.31,1.79 10.46,2.64L2.64,10.46C1.79,11.31 1.79,12.69 2.64,13.54L10.46,21.36C11.31,22.21 12.69,22.21 13.54,21.36L21.36,13.54C22.21,12.69 22.21,11.31 21.36,10.46M12,19L5,12L12,5L19,12L12,19M16.5,12L12,16.5L7.5,12L12,7.5L16.5,12Z" /></svg>
